X: 4
T: Bony Smith's Quadrille
L:1/8
M:6/8
S: Viola "Mom" Ruth - Pioneer Western Folk Tunes (1948)
Z:AK/Fiddler's Companion
K:C
g|geg age|ccc G2c|Bcd A2B|cBA G2g|geg age|ccc G2c|
(Bcd) A2B|[E3c3][E3c3]::G[Ec][Ec] [Ec][Ec][Ec]|G[Ec][Ec] cBA|
G[GB][GB] [GB][GB][GB]|G[GB][GB] BAG|G[Ec][Ec] [Ec][Ec][Ec]|
G[Ec][Ec] [Ec]BA|[E3c3e3] A2B|[E3c3][E3c3]:|

%%sep 1 1 500
